components/ui-node-icon/src/pivot/pivot.large.svg

<svg width="32" height="32" viewBox="0 0 32 32" fill="none" xmlns="http://www.w3.org/2000/svg">
  <path d="M7 3C8.65685 3 10 4.34315 10 6L10 26C10 27.6569 8.65685 29 7 29L6 29C4.34314 29 3 27.6569 3 26L3 6C3 4.34315 4.34315 3 6 3L7 3Z" fill="var(--tbl--colors--icons--transformation--tertiary)"/>
  <path fill-rule="evenodd" clip-rule="evenodd" d="M6 3C4.34315 3 3 4.34315 3 6V10H26C27.6569 10 29 8.65685 29 7V6C29 4.34315 27.6569 3 26 3H6ZM24.7929 12.7929C25.1834 12.4024 25.8166 12.4024 26.2071 12.7929L29.2071 15.7929C29.5976 16.1834 29.5976 16.8166 29.2071 17.2071C28.8166 17.5976 28.1834 17.5976 27.7929 17.2071L26.463 15.8773C26.3047 18.7313 25.6106 21.4602 23.8722 23.5729C21.8234 26.0627 18.4921 27.5 13.5 27.5C12.9477 27.5 12.5 27.0523 12.5 26.5C12.5 25.9477 12.9477 25.5 13.5 25.5C18.1079 25.5 20.7766 24.1873 22.3278 22.3021C23.6616 20.6812 24.2896 18.4956 24.4545 15.9597L23.2071 17.2071C22.8166 17.5976 22.1834 17.5976 21.7929 17.2071C21.4024 16.8166 21.4024 16.1834 21.7929 15.7929L24.7929 12.7929Z" fill="var(--tbl--colors--icons--transformation--primary)"/>
</svg>

<svg xmlns="http://www.w3.org/2000/svg" width="32" height="32" fill="none" viewBox="0 0 32 32">
  <path fill="var(--tbl--colors--icons--transformation--tertiary)" d="M7 3a3 3 0 0 1 3 3v20a3 3 0 0 1-3 3H6a3 3 0 0 1-3-3V6a3 3 0 0 1 3-3h1Z"/>
  <path fill="var(--tbl--colors--icons--transformation--primary)" fill-rule="evenodd" d="M6 3a3 3 0 0 0-3 3v4h23a3 3 0 0 0 3-3V6a3 3 0 0 0-3-3H6Zm18.793 9.793a1 1 0 0 1 1.414 0l3 3a1 1 0 0 1-1.414 1.414l-1.33-1.33c-.158 2.854-.852 5.583-2.59 7.696-2.05 2.49-5.38 3.927-10.373 3.927a1 1 0 1 1 0-2c4.608 0 7.277-1.313 8.828-3.198 1.334-1.62 1.962-3.806 2.127-6.342l-1.248 1.247a1 1 0 0 1-1.414-1.414l3-3Z" clip-rule="evenodd"/>
</svg>
